src/assets/filled/UserSquare.svg

<svg width="24" height="24" viewBox="0 0 24 24"  xmlns="http://www.w3.org/2000/svg">
<path d="M16.19 2H7.81C4.17 2 2 4.17 2 7.81V16.19C2 19 3.29 20.93 5.56 21.66C6.22 21.89 6.98 22 7.81 22H16.19C17.02 22 17.78 21.89 18.44 21.66C20.71 20.93 22 19 22 16.19V7.81C22 4.17 19.83 2 16.19 2ZM20.5 16.19C20.5 18.33 19.66 19.68 17.97 20.24C17 18.33 14.7 16.97 12 16.97C9.3 16.97 7.01 18.32 6.03 20.24H6.02C4.35 19.7 3.5 18.34 3.5 16.2V7.81C3.5 4.99 4.99 3.5 7.81 3.5H16.19C19.01 3.5 20.5 4.99 20.5 7.81V16.19Z" />
<path d="M11.9999 8C10.0199 8 8.41992 9.6 8.41992 11.58C8.41992 13.56 10.0199 15.17 11.9999 15.17C13.9799 15.17 15.5799 13.56 15.5799 11.58C15.5799 9.6 13.9799 8 11.9999 8Z" />
</svg>

<?xml version="1.0" encoding="UTF-8"?>
<svg width="24" height="24" viewBox="0 0 24 24" xmlns="http://www.w3.org/2000/svg">
 <path d="m16.19 2h-8.38c-3.64 0-5.81 2.17-5.81 5.81v8.38c0 2.81 1.29 4.74 3.56 5.47 0.66 0.23 1.42 0.34 2.25 0.34h8.38c0.83 0 1.59-0.11 2.25-0.34 2.27-0.73 3.56-2.66 3.56-5.47v-8.38c0-3.64-2.17-5.81-5.81-5.81zm4.31 14.19c0 2.14-0.84 3.49-2.53 4.05-0.97-1.91-3.27-3.27-5.97-3.27s-4.99 1.35-5.97 3.27h-0.01c-1.67-0.54-2.52-1.9-2.52-4.04v-8.39c0-2.82 1.49-4.31 4.31-4.31h8.38c2.82 0 4.31 1.49 4.31 4.31v8.38z"/>
 <path d="m12 8c-1.98 0-3.58 1.6-3.58 3.58s1.6 3.59 3.58 3.59 3.58-1.61 3.58-3.59-1.6-3.58-3.58-3.58z"/>
</svg>
